common/src/main/resources/glyphs/plugins/ruby/expui/factoryBot/overridingSequence.svg

<svg xmlns="http://www.w3.org/2000/svg" width="16" height="16" fill="#7986CB" data-big="true" viewBox="0 0 24 24"><path d="M4 17V9H2V7h4v10zm18-2a2 2 0 0 1-2 2h-4v-2h4v-2h-2v-2h2V9h-4V7h4a2 2 0 0 1 2 2v1.5a1.5 1.5 0 0 1-1.5 1.5 1.5 1.5 0 0 1 1.5 1.5zm-8 0v2H8v-4a2 2 0 0 1 2-2h2V9H8V7h4a2 2 0 0 1 2 2v2a2 2 0 0 1-2 2h-2v2z"/><path fill="#E57373" d="M19.5 12h-3V5.25l-2.625 2.625L12.06 6.06 18 .12l5.94 5.94-1.815 1.815L19.5 5.25z"/></svg>

<!--
  - The MIT License (MIT)
  -
  - Copyright (c) 2015-2024 Elior "Mallowigi" Boukhobza
  -
  - Permission is hereby granted, free of charge, to any person obtaining a copy
  - of this software and associated documentation files (the "Software"), to deal
  - in the Software without restriction, including without limitation the rights
  - to use, copy, modify, merge, publish, distribute, sublicense, and/or sell
  - copies of the Software, and to permit persons to whom the Software is
  - furnished to do so, subject to the following conditions:
  -
  - The above copyright notice and this permission notice shall be included in all
  - copies or substantial portions of the Software.
  -
  - THE SOFTWARE IS PROVIDED "AS IS", WITHOUT WARRANTY OF ANY KIND, EXPRESS OR
  - IMPLIED, INCLUDING BUT NOT LIMITED TO THE WARRANTIES OF MERCHANTABILITY,
  - FITNESS FOR A PARTICULAR PURPOSE AND NONINFRINGEMENT. IN NO EVENT SHALL THE
  - AUTHORS OR COPYRIGHT HOLDERS BE LIABLE FOR ANY CLAIM, DAMAGES OR OTHER
  - LIABILITY, WHETHER IN AN ACTION OF CONTRACT, TORT OR OTHERWISE, ARISING FROM,
  - OUT OF OR IN CONNECTION WITH THE SOFTWARE OR THE USE OR OTHER DEALINGS IN THE
  - SOFTWARE.
  -->


<svg data-big="true" xmlns="http://www.w3.org/2000/svg" version="1.1" width="16px" height="16px" viewBox="0 0 24 24"
     fill="#7986CB">
  <path
    d="M4,17V9H2V7H6V17H4M22,15C22,16.11 21.1,17 20,17H16V15H20V13H18V11H20V9H16V7H20A2,2 0 0,1 22,9V10.5A1.5,1.5 0 0,1 20.5,12A1.5,1.5 0 0,1 22,13.5V15M14,15V17H8V13C8,11.89 8.9,11 10,11H12V9H8V7H12A2,2 0 0,1 14,9V11C14,12.11 13.1,13 12,13H10V15H14Z"
    transform="scale(1)"/>
  <path fill="#E57373" transform="scale(0.75) translate(12 -4)"
        d="M14,20H10V11L6.5,14.5L4.08,12.08L12,4.16L19.92,12.08L17.5,14.5L14,11V20Z"/>
</svg>
